22x22/devices/battery.svg

<svg width="22" height="22" version="1.1" xmlns="http://www.w3.org/2000/svg">
 <defs>
  <style id="current-color-scheme" type="text/css">.ColorScheme-Text { color:#5d656b; } .ColorScheme-Highlight { color:#5294e2; }</style>
 </defs>
 <path class="ColorScheme-Text" d="m9 4v1h4v-1zm-2.156 2c-0.281 0.047-0.844 0.25-0.844 1v10c0 1 1 1 1 1h8c1 0 1-1 1-1v-10s0-1-1-1h-8s-0.063-0.016-0.156 0zm0.156 1h8v10h-8zm1 1v8h6v-8z" fill="currentColor"/>
</svg>

<svg width="22" height="22" xmlns="http://www.w3.org/2000/svg"><defs><style id="current-color-scheme" type="text/css"></style></defs><path d="M9 4v1h4V4zM6.844 6C6.563 6.047 6 6.25 6 7v10c0 1 1 1 1 1h8c1 0 1-1 1-1V7s0-1-1-1H7s-.063-.016-.156 0zM7 7h8v10H7zm1 1v8h6V8z" fill="currentColor" style="color:#5d656b"/></svg>
